X:4
T:Pop Goes the Weasel
M:6/8
K:C
L:1/4
Q:1/4=120
 G/2 | cc/2dd/2 | e/2g/2e/2cG/2 | cc/2dd/2 | e3/2cG/2 | cc/2dd/2 | e/2g/2e/2c3/2 | a/2z/2z/2df/2 | e3/2c3/2 |
 cc/2Ac/2 | B/2d/2B/2G3/2 | cc/2Ac/2 | B3/2G3/2 | FE/2FG/2 | AB/2c3/2 | a/2z/2z/2df/2 | e3/2c |]
